X:1
T:Title
%%score { ( 1 3 ) | 2 }
L:1/8
M:3/4
K:G
V:1 treble nm="Grand Piano"
V:3 treble 
V:2 treble 
V:1
 z2 z2[Q:1/4=106] G>A | B2 B2 B>[DAc] | [DBd]2 [DGB]2 [DGd]>[DGd] | [Ec]2 z2 z2 | %4
 [DGB]4 [B,G]>[CGA] | [DGB]2 [DGB]2 [DGB]>[DAc] | [DBd]2 [DGB]2 [DGd]2 | [Ec]2 z2 z2 | %8
[M:2/4] [B,G]4 |[M:1/4] z2 |[M:3/4] [DFA]2 [DFA]2 z2 | [DGB]2 [DGB]2 z2 | [DAc]2 [DAc]2 [DAd]2 | %13
 [DGB]4 z2 | [DAc]2 [DAc]2 z2 | [DGB]2 [DGB]2 z2 | [CEA]2 [CE]2 [A,CF]2 |[M:2/4] [G,B,G]4 |] %18
V:2
 z2 z2 [G,B,]>[G,CG] | [G,DG]2 [G,DG]2 [G,DG]>[K:bass]G, | G,2 G,2 B,,>B,, | C,2 D,2 D,2 | %4
 G,4 G,>G, | G,2 G,2 G,>G, | G,2 G,2 B,,2 | C,2 D,2 D,2 |[M:2/4] G,4 |[M:1/4][K:treble] F>G | %10
[M:3/4][K:bass] D,2 D,2[K:treble] G>A | G,2 G,2 A>B | D,2 D,2 D,2 | G,4[K:treble] e>d | %14
 D,2 D,2[K:treble] d>c | G,2 G,2 c>B | C,2 C,2 D,2 |[M:2/4] G,,4 |] %18
V:3
 x6 | x6 | x6 | G2- [DGB]2 [DFA]2 | x6 | x6 | x6 | G2- [DGB]2 [CFA]2 |[M:2/4] x4 |[M:1/4] x2 | %10
[M:3/4] x6 | x6 | x6 | x6 | x6 | x6 | x6 |[M:2/4] x4 |] %18

